src/assets/images/icons/community/jira.svg

<svg xmlns="http://www.w3.org/2000/svg" width="144" height="191" viewBox="0 0 144 191">
  <g fill="#A9A6AF">
    <path d="M30.8465746 12.2811581C23.99102 12.2811581 18.4399822 17.8253541 18.4399822 24.6980134 18.4399822 31.5535679 23.99102 37.1171492 30.8465746 37.1171492 37.7078307 37.1171492 43.253167 31.5535679 43.253167 24.6980134 43.253167 17.8253541 37.7078307 12.2811581 30.8465746 12.2811581M112.356062 12.2811581C105.497087 12.2811581 99.9528909 17.8253541 99.9528909 24.6980134 99.9528909 31.5535679 105.497087 37.1171492 112.356062 37.1171492 119.195653 37.1171492 124.760374 31.5535679 124.760374 24.6980134 124.760374 17.8253541 119.195653 12.2902806 112.356062 12.2811581M71.6013185.951020045C64.7457639.951020045 59.1947261 6.49407572 59.1947261 13.3690156 59.1947261 20.2245702 64.7457639 25.7892918 71.6013185 25.7892918 78.4614343 25.7892918 84.0056303 20.2245702 84.0056303 13.3690156 84.0056303 6.49407572 78.4614343.951020045 71.6013185.951020045M141.686022 46.8816392C140.994993 46.3570958 140.165987 46.0845612 139.324437 46.0845612 138.856909 46.0845612 138.38482 46.1700846 137.937817 46.3422717 129.53714 49.5545301 121.006468 51.993657 113.220419 53.8078931 111.631964 54.1784944 110.349114 55.3575768 109.817728 56.7738441 104.144677 72.3128731 89.6592962 87.109559 74.4612205 102.607537 73.8511537 103.186815 72.9970601 103.950824 71.6058797 103.950824 70.2181203 103.950824 69.3720089 103.210762 68.750539 102.607537 53.5547439 87.109559 39.069363 72.3641871 33.3940312 56.8240178 32.8615056 55.4088909 31.5786548 54.2298085 29.9936214 53.8580668 22.2030111 52.0438307 13.6506726 49.5294432 5.26025835 46.3171849 4.8109755 46.1461381 4.33888641 46.0606147 3.87021826 46.0606147 3.02866815 46.0606147 2.21448552 46.325167 1.52573719 46.8508508.449282851 47.6718753-.109469933 49.0037595.0182449889 50.2831893 1.3045167 63.2052027 6.41083296 75.8375768 15.6256927 89.0754566 24.2875011 101.52082 35.5857105 113.04139 46.5087572 124.181096 66.6352606 144.710129 85.6476793 164.098851 87.3159555 186.582379 87.4664766 188.609853 89.1564187 190.182343 91.1941559 190.182343L114.839661 190.182343C115.904713 190.182343 116.921871 189.744463 117.657372 188.972472 118.389452 188.201621 118.777158 187.166218 118.723563 186.101167 117.98008 171.069577 112.322993 156.016321 101.429595 140.086165 99.1466904 136.746192 96.7018619 133.496303 94.1452829 130.315973 93.1064588 129.020579 93.5409176 127.411599 94.3357149 126.599697 95.1213898 125.795777 95.9104855 124.994138 96.7041425 124.181096 107.62833 113.040249 118.924258 101.52082 127.588347 89.0754566 136.802067 75.8364365 141.906102 63.2781826 143.193514 50.3584499 143.32237 49.0596347 142.732829 47.6821381 141.686022 46.8816392M46.2316615 141.670058C45.6729087 141.085078 44.8507439 140.487555 43.4709666 140.487555 41.7057639 140.487555 40.6589577 141.707688 40.2632695 142.312053 30.3174699 157.447412 25.1803653 171.732098 24.469951 186.087483 24.418637 187.145693 24.8086236 188.19706 25.5407038 188.970192 26.2762049 189.738762 27.3070468 190.182343 28.3698174 190.182343L51.975412 190.182343C54.0063073 190.182343 55.7167751 188.592748 55.8661559 186.567555 56.3804365 179.649283 58.5344855 172.713906 62.4560178 165.426174 63.8152695 162.904944 62.7593408 160.536517 61.9770869 159.52392 58.086343 154.464356 53.32098 149.067261 46.2316615 141.670058"/>
    <path d="M71.6275457,58.4660668 C79.0384321,58.4660668 83.3362673,58.0213452 84.8460401,58.0213452 C86.6751002,58.0213452 88.4231982,59.5197149 88.4231982,61.6178886 C88.4231982,62.2302361 88.2783786,62.6681158 88.1346993,63.0546815 C87.1517506,65.6819599 82.6726058,75.1351448 74.3335056,83.243902 C73.3984499,84.1538708 72.3379599,84.3237773 71.6081604,84.3237773 L71.5990379,84.3237773 C70.8703786,84.3237773 69.811029,84.1538708 68.8759733,83.243902 C60.5368731,75.1351448 56.056588,65.6819599 55.0759198,63.0546815 C54.9311002,62.6681158 54.7862806,62.2302361 54.7862806,61.6178886 C54.7862806,59.5197149 56.5366592,58.0213452 58.3657194,58.0213452 C59.8754922,58.0213452 64.1710468,58.4660668 71.5785122,58.4660668 L71.6275457,58.4660668"/>
  </g>
</svg>

<svg xmlns="http://www.w3.org/2000/svg" width="144" height="191" viewBox="0 0 144 191"><g fill="#264970"><path d="M30.847 12.281c-6.856 0-12.407 5.544-12.407 12.417 0 6.856 5.551 12.42 12.407 12.42 6.86 0 12.406-5.564 12.406-12.42 0-6.873-5.545-12.417-12.406-12.417m81.51 0c-6.86 0-12.404 5.544-12.404 12.417 0 6.856 5.544 12.42 12.403 12.42 6.84 0 12.404-5.564 12.404-12.42 0-6.873-5.564-12.408-12.404-12.417M71.601.951c-6.855 0-12.406 5.543-12.406 12.418 0 6.856 5.55 12.42 12.406 12.42 6.86 0 12.405-5.564 12.405-12.42C84.006 6.494 78.46.951 71.6.951m70.085 45.93a3.9 3.9 0 0 0-2.362-.796c-.467 0-.94.085-1.386.257-8.4 3.213-16.932 5.652-24.718 7.466-1.588.37-2.87 1.55-3.402 2.966-5.673 15.539-20.159 30.336-35.357 45.834-.61.579-1.464 1.343-2.855 1.343-1.388 0-2.234-.74-2.855-1.343C53.555 87.11 39.069 72.364 33.394 56.824c-.532-1.415-1.815-2.594-3.4-2.966-7.791-1.814-16.343-4.329-24.734-7.54a3.91 3.91 0 0 0-1.39-.257c-.841 0-1.656.264-2.344.79a3.881 3.881 0 0 0-1.508 3.432c1.287 12.922 6.393 25.555 15.608 38.792 8.662 12.446 19.96 23.966 30.883 35.106 20.126 20.53 39.139 39.918 40.807 62.401a3.889 3.889 0 0 0 3.878 3.6h23.646a3.892 3.892 0 0 0 3.884-4.08c-.744-15.032-6.401-30.086-17.294-46.016-2.283-3.34-4.728-6.59-7.285-9.77-1.039-1.295-.604-2.904.19-3.716.786-.804 1.575-1.606 2.37-2.419 10.923-11.14 22.22-22.66 30.883-35.106 9.214-13.239 14.318-25.797 15.606-38.717.128-1.298-.461-2.676-1.508-3.476M46.232 141.67c-.56-.585-1.381-1.182-2.761-1.182-1.765 0-2.812 1.22-3.208 1.824-9.946 15.135-15.083 29.42-15.793 43.775a3.938 3.938 0 0 0 1.07 2.883 3.937 3.937 0 0 0 2.83 1.212h23.605a3.92 3.92 0 0 0 3.891-3.614c.514-6.919 2.668-13.854 6.59-21.142 1.36-2.521.303-4.89-.479-5.902-3.89-5.06-8.656-10.457-15.745-17.854"/><path d="M71.628 58.466c7.41 0 11.708-.445 13.218-.445 1.83 0 3.577 1.499 3.577 3.597 0 .612-.145 1.05-.288 1.437-.983 2.627-5.462 12.08-13.801 20.189-.936.91-1.996 1.08-2.726 1.08H71.6c-.729 0-1.788-.17-2.723-1.08-8.34-8.109-12.82-17.562-13.8-20.19-.145-.386-.29-.824-.29-1.436 0-2.098 1.75-3.597 3.58-3.597 1.51 0 5.805.445 13.213.445h.049"/></g></svg>
